src/pos-icons/email-off-outline.svg

<svg height="24" viewBox="0 0 24 24" width="24" xmlns="http://www.w3.org/2000/svg"><path d="m22.1 21.5-19.7-19.8-1.3 1.3 1.5 1.5c-.3.4-.6.9-.6 1.5v12c0 1.1.9 2 2 2h14.1l2.7 2.7zm-18.1-3.5v-10l5.6 3.5 6.5 6.5zm5.2-12-2-2h12.8c1.1 0 2 .9 2 2v12c0 .2 0 .5-.1.7l-1.9-1.9v-8.8l-5.4 3.4-1.2-1.2 6.6-4.2z"/></svg>

<?xml version="1.0" encoding="UTF-8"?><!DOCTYPE svg PUBLIC "-//W3C//DTD SVG 1.1//EN" "http://www.w3.org/Graphics/SVG/1.1/DTD/svg11.dtd"><svg xmlns="http://www.w3.org/2000/svg" xmlns:xlink="http://www.w3.org/1999/xlink" version="1.1" id="mdi-email-off-outline" width="24" height="24" viewBox="0 0 24 24"><path d="M22.1 21.5L2.4 1.7L1.1 3L2.6 4.5C2.3 4.9 2 5.4 2 6V18C2 19.1 2.9 20 4 20H18.1L20.8 22.7L22.1 21.5M4 18V8L9.6 11.5L16.1 18H4M9.2 6L7.2 4H20C21.1 4 22 4.9 22 6V18C22 18.2 22 18.5 21.9 18.7L20 16.8V8L14.6 11.4L13.4 10.2L20 6H9.2Z" /></svg>
